assets/svg/action_wallet_lock.svg

<svg width="80" height="80" viewBox="0 0 80 80" fill="none" xmlns="http://www.w3.org/2000/svg">
<path d="M54.4066 29.9828H25.2863V17.9172C25.2863 12.8094 29.441 8.65469 34.5488 8.65469C39.6566 8.65469 43.8113 12.8094 43.8113 17.9172V24.0203C43.8113 24.8719 44.5035 25.5641 45.3551 25.5641H48.9676C49.8191 25.5641 50.5113 24.8719 50.5113 24.0203V17.9172C50.5113 9.11406 43.3504 1.95312 34.5473 1.95312C25.7441 1.95312 18.5863 9.11406 18.5863 17.9172V27.6281C18.5863 27.9297 18.8316 28.175 19.1332 28.175C19.4348 28.175 19.6801 27.9297 19.6801 27.6281V17.9172C19.6801 9.71719 26.3504 3.04688 34.5504 3.04688C42.7504 3.04688 49.4207 9.71719 49.4207 17.9172V24.0203C49.4207 24.1397 49.3733 24.2541 49.2889 24.3385C49.2045 24.4229 49.09 24.4703 48.9707 24.4703H45.3582C45.2389 24.4703 45.1244 24.4229 45.04 24.3385C44.9556 24.2541 44.9082 24.1397 44.9082 24.0203V17.9172C44.9082 12.2063 40.2629 7.56094 34.552 7.56094C28.841 7.56094 24.1957 12.2063 24.1957 17.9172V29.9828H13.8129C11.8535 29.9828 10.2598 31.5766 10.2598 33.5359V71.2375C10.2598 73.1969 11.8535 74.7906 13.8129 74.7906H19.1316C19.4332 74.7906 19.6785 74.5453 19.6785 74.2438C19.6785 73.9422 19.4332 73.6969 19.1316 73.6969H13.8129C12.4566 73.6969 11.3535 72.5938 11.3535 71.2375V33.5359C11.3535 32.1797 12.4566 31.0766 13.8129 31.0766H54.4066C55.7629 31.0766 56.866 32.1797 56.866 33.5359V62.8422C56.866 63.1437 57.1113 63.3891 57.4129 63.3891C57.7144 63.3891 57.9598 63.1437 57.9598 62.8422V33.5359C57.9598 31.5766 56.366 29.9828 54.4066 29.9828Z" fill="#9A9A9A"/>
<path d="M38.0986 45.0191C37.0455 44.0301 35.6689 43.5332 34.2205 43.6238C31.6033 43.7863 29.5205 45.8832 29.3752 48.5004C29.2752 50.3144 30.1205 52.0316 31.597 53.0551V58.9816C31.597 60.6097 32.9205 61.9332 34.5486 61.9332C36.1767 61.9332 37.5002 60.6097 37.5002 58.9816V53.0551C38.9033 52.0847 39.7314 50.5144 39.7314 48.7941C39.7314 47.3722 39.1361 45.9957 38.0986 45.0191ZM34.5502 60.841C33.5252 60.841 32.6924 60.0082 32.6924 58.9832V57.9019C34.3111 57.7191 35.6845 56.7332 36.408 55.3504V58.9832C36.408 60.0082 35.5736 60.841 34.5502 60.841Z" fill="#9A9A9A"/>
<path d="M67.2234 65.0098H23.8375C22.75 65.0098 21.8672 65.8926 21.8672 66.9801V75.5301C21.8672 76.6176 22.75 77.5004 23.8375 77.5004H67.2219C68.3094 77.5004 69.1922 76.6176 69.1922 75.5301V66.9801C69.1922 65.8926 68.3109 65.0098 67.2234 65.0098ZM34.8969 71.2566L33.7031 71.5051C33.4859 71.5473 33.1766 71.577 32.7766 71.5957C32.7047 71.5988 32.6766 71.6879 32.7312 71.7332C32.9953 71.9488 33.2094 72.1473 33.3766 72.3285L34.1812 73.202C34.2547 73.2832 34.2438 73.4098 34.1563 73.4754L32.8594 74.4473C32.7688 74.5145 32.6406 74.4863 32.5859 74.3879L32.0172 73.352C31.9313 73.1973 31.7984 72.9113 31.6172 72.4941C31.5906 72.4316 31.5016 72.4316 31.475 72.4941C31.2781 72.952 31.1453 73.2379 31.075 73.352L30.4969 74.3926C30.4422 74.4895 30.3156 74.5176 30.2266 74.452L28.8938 73.4785C28.8016 73.4113 28.7922 73.2785 28.8719 73.1988L29.7359 72.327C29.9656 72.0973 30.1922 71.8941 30.4141 71.7207C30.4687 71.677 30.4469 71.591 30.3781 71.5832C30.1313 71.5535 29.8297 71.5066 29.4734 71.4395L28.2859 71.2473C28.1734 71.2285 28.1031 71.1129 28.1406 71.0051L28.6562 69.4941C28.6922 69.391 28.8078 69.341 28.9078 69.3848L29.9813 69.8723C30.1 69.927 30.3781 70.0832 30.8141 70.341C30.8719 70.3754 30.9438 70.3238 30.9297 70.2582C30.8375 69.8379 30.7781 69.5191 30.7516 69.3004L30.5984 68.141C30.5844 68.0301 30.6703 67.9316 30.7812 67.9316H32.3641C32.475 67.9316 32.5609 68.0285 32.5484 68.1379L32.4094 69.2988C32.3781 69.5863 32.3172 69.9098 32.2266 70.2645C32.2094 70.3285 32.2781 70.3832 32.3375 70.3535C32.4813 70.2801 32.5813 70.227 32.6359 70.1957C32.8891 70.0566 33.0828 69.9566 33.2156 69.8973L34.2859 69.3895C34.3859 69.341 34.5063 69.3926 34.5406 69.4988L35.0359 71.0145C35.0703 71.1223 35.0062 71.2348 34.8969 71.2566ZM44.1203 71.2566L42.9266 71.5051C42.7094 71.5473 42.4 71.577 42 71.5957C41.9281 71.5988 41.9 71.6879 41.9547 71.7332C42.2188 71.9488 42.4328 72.1473 42.6 72.3285L43.4047 73.202C43.4781 73.2832 43.4672 73.4098 43.3797 73.4754L42.0828 74.4473C41.9922 74.5145 41.8641 74.4863 41.8094 74.3879L41.2406 73.352C41.1547 73.1973 41.0219 72.9113 40.8406 72.4941C40.8141 72.4316 40.725 72.4316 40.6984 72.4941C40.5016 72.952 40.3688 73.2379 40.2984 73.352L39.7203 74.3926C39.6656 74.4895 39.5391 74.5176 39.45 74.452L38.1172 73.4785C38.025 73.4113 38.0156 73.2785 38.0953 73.1988L38.9594 72.327C39.1891 72.0973 39.4156 71.8941 39.6375 71.7207C39.6922 71.677 39.6703 71.591 39.6016 71.5832C39.3547 71.5535 39.0531 71.5066 38.6969 71.4395L37.5094 71.2473C37.3969 71.2285 37.3266 71.1129 37.3641 71.0051L37.8797 69.4941C37.9156 69.391 38.0312 69.341 38.1312 69.3848L39.2047 69.8723C39.3234 69.927 39.6016 70.0832 40.0375 70.341C40.0953 70.3754 40.1672 70.3238 40.1531 70.2582C40.0609 69.8379 40.0016 69.5191 39.975 69.3004L39.8219 68.141C39.8078 68.0301 39.8938 67.9316 40.0047 67.9316H41.5875C41.6984 67.9316 41.7844 68.0285 41.7719 68.1379L41.6328 69.2988C41.6016 69.5863 41.5406 69.9098 41.45 70.2645C41.4328 70.3285 41.5016 70.3832 41.5609 70.3535C41.7047 70.2801 41.8047 70.227 41.8594 70.1957C42.1125 70.0566 42.3062 69.9566 42.4391 69.8973L43.5094 69.3895C43.6094 69.341 43.7297 69.3926 43.7641 69.4988L44.2594 71.0145C44.2938 71.1223 44.2281 71.2348 44.1203 71.2566ZM53.3438 71.2566L52.15 71.5051C51.9328 71.5473 51.6234 71.577 51.2234 71.5957C51.1516 71.5988 51.1234 71.6879 51.1781 71.7332C51.4422 71.9488 51.6563 72.1473 51.8234 72.3285L52.6281 73.202C52.7016 73.2832 52.6906 73.4098 52.6031 73.4754L51.3062 74.4473C51.2156 74.5145 51.0875 74.4863 51.0328 74.3879L50.4641 73.352C50.3781 73.1973 50.2453 72.9113 50.0641 72.4941C50.0375 72.4316 49.9484 72.4316 49.9219 72.4941C49.725 72.952 49.5922 73.2379 49.5219 73.352L48.9437 74.3926C48.8891 74.4895 48.7625 74.5176 48.6734 74.452L47.3406 73.4785C47.2484 73.4113 47.2391 73.2785 47.3188 73.1988L48.1828 72.327C48.4125 72.0973 48.6391 71.8941 48.8609 71.7207C48.9156 71.677 48.8938 71.591 48.825 71.5832C48.5781 71.5535 48.2766 71.5066 47.9203 71.4395L46.7328 71.2473C46.6203 71.2285 46.55 71.1129 46.5875 71.0051L47.1031 69.4941C47.1391 69.391 47.2547 69.341 47.3547 69.3848L48.4281 69.8723C48.5469 69.927 48.825 70.0832 49.2609 70.341C49.3187 70.3754 49.3906 70.3238 49.3766 70.2582C49.2844 69.8379 49.225 69.5191 49.1984 69.3004L49.0453 68.141C49.0313 68.0301 49.1172 67.9316 49.2281 67.9316H50.8109C50.9219 67.9316 51.0078 68.0285 50.9953 68.1379L50.8563 69.2988C50.825 69.5863 50.7641 69.9098 50.6734 70.2645C50.6562 70.3285 50.725 70.3832 50.7844 70.3535C50.9281 70.2801 51.0281 70.227 51.0828 70.1957C51.3359 70.0566 51.5297 69.9566 51.6625 69.8973L52.7328 69.3895C52.8328 69.341 52.9531 69.3926 52.9875 69.4988L53.4828 71.0145C53.5156 71.1223 53.4516 71.2348 53.3438 71.2566ZM62.5672 71.2566L61.3734 71.5051C61.1562 71.5473 60.8469 71.577 60.4469 71.5957C60.375 71.5988 60.3469 71.6879 60.4016 71.7332C60.6656 71.9488 60.8797 72.1473 61.0469 72.3285L61.8516 73.202C61.925 73.2832 61.9141 73.4098 61.8266 73.4754L60.5297 74.4473C60.4391 74.5145 60.3109 74.4863 60.2563 74.3879L59.6875 73.352C59.6016 73.1973 59.4688 72.9113 59.2875 72.4941C59.2609 72.4316 59.1719 72.4316 59.1453 72.4941C58.9484 72.952 58.8156 73.2379 58.7453 73.352L58.1672 74.3926C58.1125 74.4895 57.9859 74.5176 57.8969 74.452L56.5641 73.4785C56.4719 73.4113 56.4625 73.2785 56.5422 73.1988L57.4062 72.327C57.6359 72.0973 57.8625 71.8941 58.0844 71.7207C58.1391 71.677 58.1172 71.591 58.0484 71.5832C57.8016 71.5535 57.5 71.5066 57.1437 71.4395L55.9562 71.2473C55.8438 71.2285 55.7734 71.1129 55.8109 71.0051L56.3266 69.4941C56.3625 69.391 56.4781 69.341 56.5781 69.3848L57.6516 69.8723C57.7703 69.927 58.0484 70.0832 58.4844 70.341C58.5422 70.3754 58.6156 70.3238 58.6 70.2582C58.5078 69.8379 58.4484 69.5191 58.4219 69.3004L58.2688 68.141C58.2547 68.0301 58.3406 67.9316 58.4516 67.9316H60.0344C60.1453 67.9316 60.2313 68.0285 60.2188 68.1379L60.0797 69.2988C60.0484 69.5863 59.9875 69.9098 59.8969 70.2645C59.8797 70.3285 59.9484 70.3832 60.0078 70.3535C60.1516 70.2801 60.2516 70.227 60.3062 70.1957C60.5594 70.0566 60.7531 69.9566 60.8859 69.8973L61.9563 69.3895C62.0578 69.341 62.1766 69.3926 62.2109 69.4988L62.7062 71.0145C62.7391 71.1223 62.675 71.2348 62.5672 71.2566Z" fill="#0166FF"/>
<path d="M45.2516 62.6018H52.0938C53.1781 62.6018 54.0563 61.7221 54.0563 60.6393V51.7893C54.0563 49.7283 51.9719 48.3237 50.0609 49.0955L47.2359 50.2377C46.0698 50.7095 45.0711 51.5189 44.3679 52.562C43.6647 53.6051 43.289 54.8344 43.2891 56.0924V60.6393C43.2875 61.7237 44.1672 62.6018 45.2516 62.6018Z" fill="#E1EAF8"/>
</svg>

<svg xmlns="http://www.w3.org/2000/svg" width="80" height="80" fill="none"><path fill="#9A9A9A" d="M54.407 29.983h-29.12V17.917c0-5.108 4.154-9.262 9.262-9.262s9.262 4.154 9.262 9.262v6.103c0 .852.693 1.544 1.544 1.544h3.613c.851 0 1.543-.692 1.543-1.544v-6.103c0-8.803-7.16-15.964-15.964-15.964s-15.96 7.161-15.96 15.964v9.711a.547.547 0 0 0 1.093 0v-9.71c0-8.2 6.67-14.871 14.87-14.871s14.87 6.67 14.87 14.87v6.103a.45.45 0 0 1-.45.45h-3.612a.45.45 0 0 1-.45-.45v-6.103c0-5.71-4.645-10.356-10.356-10.356s-10.356 4.645-10.356 10.356v12.066H13.813a3.557 3.557 0 0 0-3.553 3.553v37.701a3.557 3.557 0 0 0 3.553 3.554h5.319a.547.547 0 0 0 0-1.094h-5.32a2.46 2.46 0 0 1-2.458-2.46V33.537a2.46 2.46 0 0 1 2.459-2.46h40.594a2.46 2.46 0 0 1 2.459 2.46v29.306a.548.548 0 0 0 1.094 0V33.536a3.557 3.557 0 0 0-3.553-3.553"/><path fill="#9A9A9A" d="M38.099 45.02a5.14 5.14 0 0 0-3.878-1.396 5.175 5.175 0 0 0-4.846 4.876 5.19 5.19 0 0 0 2.222 4.555v5.927a2.954 2.954 0 0 0 2.952 2.951 2.954 2.954 0 0 0 2.951-2.951v-5.927a5.15 5.15 0 0 0 2.231-4.26 5.2 5.2 0 0 0-1.632-3.776M34.55 60.84a1.86 1.86 0 0 1-1.858-1.858v-1.081a4.8 4.8 0 0 0 3.716-2.552v3.633a1.86 1.86 0 0 1-1.858 1.858"/><path fill="#0166FF" d="M67.223 65.01H23.838c-1.088 0-1.97.883-1.97 1.97v8.55c0 1.088.882 1.97 1.97 1.97h43.384c1.087 0 1.97-.882 1.97-1.97v-8.55a1.97 1.97 0 0 0-1.969-1.97m-32.326 6.247-1.194.248a7 7 0 0 1-.926.09c-.072.004-.1.093-.046.138q.395.323.646.596l.804.873a.186.186 0 0 1-.025.273l-1.297.972a.186.186 0 0 1-.273-.06l-.569-1.035q-.129-.232-.4-.858a.077.077 0 0 0-.142 0q-.295.687-.4.858l-.578 1.04a.185.185 0 0 1-.27.06l-1.333-.974a.185.185 0 0 1-.022-.28l.864-.871q.345-.346.678-.606c.055-.044.033-.13-.036-.138q-.37-.043-.905-.144l-1.187-.192a.185.185 0 0 1-.145-.242l.515-1.51a.187.187 0 0 1 .252-.11l1.073.487q.179.082.833.469a.078.078 0 0 0 .116-.083q-.14-.63-.178-.958l-.154-1.159a.186.186 0 0 1 .183-.21h1.583c.111 0 .197.097.184.207l-.139 1.16a7 7 0 0 1-.182.966c-.018.065.051.12.11.09q.216-.111.299-.158a9 9 0 0 1 .58-.299l1.07-.508c.1-.048.22.004.255.11l.495 1.516a.187.187 0 0 1-.14.242m9.223 0-1.193.248a7 7 0 0 1-.927.09c-.072.004-.1.093-.045.138q.395.323.645.596l.805.873a.186.186 0 0 1-.025.273l-1.297.972a.186.186 0 0 1-.274-.06l-.568-1.035a12 12 0 0 1-.4-.858.077.077 0 0 0-.143 0q-.294.687-.4.858l-.578 1.04a.185.185 0 0 1-.27.06l-1.333-.974a.185.185 0 0 1-.022-.28l.864-.871q.346-.346.678-.606c.055-.044.033-.13-.035-.138q-.37-.043-.905-.144l-1.188-.192a.185.185 0 0 1-.145-.242l.516-1.51a.186.186 0 0 1 .251-.11l1.074.487q.178.082.833.469a.078.078 0 0 0 .115-.083q-.138-.63-.178-.958l-.153-1.159a.185.185 0 0 1 .183-.21h1.582c.111 0 .197.097.185.207l-.14 1.16a7 7 0 0 1-.182.966c-.017.065.052.12.11.09q.218-.111.3-.158.379-.21.58-.299l1.07-.508c.1-.048.22.004.254.11l.495 1.516a.19.19 0 0 1-.139.242m9.224 0-1.194.248a7 7 0 0 1-.927.09c-.071.004-.1.093-.045.138q.395.323.645.596l.805.873a.186.186 0 0 1-.025.273l-1.297.972a.186.186 0 0 1-.273-.06l-.569-1.035q-.129-.232-.4-.858a.077.077 0 0 0-.142 0q-.295.687-.4.858l-.578 1.04a.185.185 0 0 1-.27.06l-1.333-.974a.185.185 0 0 1-.022-.28l.864-.871q.345-.346.678-.606c.055-.044.033-.13-.036-.138q-.37-.043-.905-.144l-1.187-.192a.185.185 0 0 1-.145-.242l.515-1.51a.187.187 0 0 1 .252-.11l1.073.487q.179.082.833.469a.078.078 0 0 0 .116-.083q-.139-.63-.179-.958l-.153-1.159a.186.186 0 0 1 .183-.21h1.583c.11 0 .197.097.184.207l-.139 1.16a7 7 0 0 1-.183.966c-.017.065.052.12.111.09q.216-.111.299-.158.38-.21.58-.299l1.07-.508c.1-.048.22.004.255.11l.495 1.516a.19.19 0 0 1-.14.242m9.223 0-1.194.248a7 7 0 0 1-.926.09c-.072.004-.1.093-.045.138q.395.323.645.596l.805.873a.186.186 0 0 1-.025.273l-1.297.972a.186.186 0 0 1-.274-.06l-.569-1.035a12 12 0 0 1-.4-.858.077.077 0 0 0-.142 0q-.295.687-.4.858l-.578 1.04a.185.185 0 0 1-.27.06l-1.333-.974a.185.185 0 0 1-.022-.28l.864-.871q.345-.346.678-.606c.055-.044.033-.13-.036-.138q-.37-.043-.904-.144l-1.188-.192a.185.185 0 0 1-.145-.242l.516-1.51a.186.186 0 0 1 .251-.11l1.074.487q.178.082.832.469c.058.034.132-.017.116-.083q-.139-.63-.178-.958l-.153-1.159a.185.185 0 0 1 .183-.21h1.582c.111 0 .197.097.185.207l-.14 1.16a7 7 0 0 1-.182.966c-.017.065.051.12.11.09q.218-.111.3-.158a9 9 0 0 1 .579-.299l1.07-.508a.183.183 0 0 1 .255.11l.495 1.516a.19.19 0 0 1-.139.242"/><path fill="#E1EAF8" d="M45.252 62.602h6.842c1.084 0 1.962-.88 1.962-1.963v-8.85c0-2.06-2.084-3.465-3.995-2.693l-2.825 1.142a6.32 6.32 0 0 0-3.947 5.854v4.547a1.96 1.96 0 0 0 1.963 1.963"/></svg>
